svgs/regular/curling-stone.svg

<svg xmlns="http://www.w3.org/2000/svg" viewBox="0 0 576 512"><!-- Font Awesome Pro 6.0.0-alpha2 by @fontawesome - https://fontawesome.com License - https://fontawesome.com/license (Commercial License) --><path d="M480 224C480 188.652 451.346 160 416 160H224V120C224 97.938 241.938 80 264 80H392C405.25 80 416 69.25 416 56S405.25 32 392 32H264C215.469 32 176 71.469 176 120V160H160C124.654 160 96 188.652 96 224C42.98 224 0 266.98 0 320V384C0 437.02 42.98 480 96 480H480C533.02 480 576 437.02 576 384V320C576 266.98 533.02 224 480 224ZM96 272H480C506.467 272 528 293.531 528 320V328H48V320C48 293.531 69.533 272 96 272ZM480 432H96C69.533 432 48 410.469 48 384V376H528V384C528 410.469 506.467 432 480 432Z"/></svg>

<svg xmlns="http://www.w3.org/2000/svg" viewBox="0 0 576 512"><!--! Font Awesome Pro 6.3.0 by @fontawesome - https://fontawesome.com License - https://fontawesome.com/license (Commercial License) Copyright 2023 Fonticons, Inc. --><path d="M480 224c0-35.35-28.65-64-64-64H224V120C224 97.94 241.9 80 264 80h128C405.3 80 416 69.25 416 56S405.3 32 392 32h-128C215.5 32 176 71.47 176 120L175.1 160H160C124.7 160 95.1 188.7 95.1 224c-53.02 0-96 42.98-96 96v64c0 53.02 42.98 96 96 96h384c53.02 0 96-42.98 96-96v-64C576 266.1 533 224 480 224zM96 272h384c26.47 0 48 21.53 48 48v8h-480V320C48 293.5 69.53 272 96 272zM480 432H96c-26.47 0-48-21.53-48-48v-8h480V384C528 410.5 506.5 432 480 432z"/></svg>
